X: 6812
T: Charley, Frances And Ivan
R: hornpipe
M: 4/4
K: Dmajor
dB|:AFEF DFEF|(3AFA dF A2 dB|AFEF DFEF|AGFG E2 dB|
AFEF DFEF|(3AFA dF A2 de|fedB (3ABA FA|1 (3def ecd2 dB:|2 (3def ecd2 fg||
|:afdg ecAG|(3FGA def2 fg|afdg ecAG|
[1 (3FGA ded2 fg|afdg ecAG|(3FGA def2 de|fedB (3ABA FA|(3def ecd2 fg:|
[2 (3FGA ded2 dB|AFEF DFEF|(3AFA dF A2 de|fedB (3ABA FA|(3def ec d4||

